packages/console/src/assets/images/eye-closed.svg

<svg
    width="20"
    height="20"
    viewBox="0 0 20 20"
    fill="none"
    xmlns="http://www.w3.org/2000/svg"
    
  >
    <path
      fillRule="evenodd"
      clipRule="evenodd"
      d="M3.66988 2.79338C3.27935 3.18391 3.27935 3.81707 3.66988 4.2076L5.30804 5.84576C3.10993 7.40492 1.66699 9.55153 1.66699 10.0003C1.66699 10.722 5.39795 15.8337 10.0003 15.8337C11.468 15.8337 12.847 15.3139 14.0447 14.5824L16.3978 16.9355C16.7883 17.326 17.4215 17.326 17.812 16.9355C18.2025 16.545 18.2025 15.9118 17.812 15.5213L5.08409 2.79338C4.69356 2.40286 4.0604 2.40286 3.66988 2.79338ZM12.0732 12.6109L7.38973 7.92745C6.9373 8.4965 6.66699 9.21685 6.66699 10.0003C6.66699 11.8413 8.15938 13.3337 10.0003 13.3337C10.7838 13.3337 11.5042 13.0634 12.0732 12.6109ZM18.3337 10.0003C18.3337 10.2663 17.8268 11.1287 16.9563 12.1117L9.07884 4.23427C9.38142 4.1904 9.68888 4.16699 10.0003 4.16699C14.6027 4.16699 18.3337 9.27866 18.3337 10.0003Z"
      fill="currentColor"
    />
  </svg>

<svg width="20" height="20" viewBox="0 0 20 20" fill="none" xmlns="http://www.w3.org/2000/svg"><path d="M3.67 2.793a1 1 0 0 0 0 1.415l1.638 1.638C3.11 7.405 1.667 9.552 1.667 10c0 .722 3.731 5.834 8.333 5.834 1.468 0 2.847-.52 4.045-1.252l2.353 2.354a1 1 0 0 0 1.414-1.415L5.084 2.793a1 1 0 0 0-1.414 0Zm8.403 9.818L7.39 7.927a3.333 3.333 0 0 0 4.683 4.683Zm6.26-2.61c0 .265-.506 1.128-1.377 2.11L9.08 4.235c.302-.044.61-.067.921-.067 4.603 0 8.334 5.112 8.334 5.833Z" fill="currentColor"/></svg>
